X:1
T: The Cashcrom
%T: 8 x 32S 2C (Milton Levy/The Tin Woodman Colln)
T: The Milton Strathspey
C: by James Stevenson
C: arr. T. Traub 5-27-2005
R: Strathspey
M: 4/4
K: G
L: 1/8
d|"G"B<dd>g "Am"e<cA>c|"Bm"B<FF>D "C"E2 "D7"d>c|"G"B<dd>g "C"e<ca>g|"D7"f<dc<d "G"B2 "D"d2| "G"B<dd>g "Am"e<cA>c|
"Bm"B<FF>D "C"E2 "D7"D>C|"G"B,>DG<B "C"c>AE>G|"D7"(3FDd (3cBA "G"G2 || G>F|"C"E<GG>E "G"D2 B,2|"Am"C>B,"D7"C>D "G"B,2 G>F|
"C"E<GG>E "G"D2 G2|"A7"A>GA<B "D"d2 g>f|"Em"e<gg>e "Bm"d2 B2|"Am"A>BA>G "C"E2 "D7"D>C|"G"B,>DG<B "C"c>AE>G|"D7"(3FDd (3cBA "G"G2 |]
